third_party/noto/noto_2/emoji_u2639.svg

<svg enable-background="new 0 0 128 128" version="1.1" viewBox="0 0 128 128" xmlns="http://www.w3.org/2000/svg"><radialGradient id="a" cx="63.6" cy="1400.9" r="56.96" gradientTransform="translate(0 -1338)" gradientUnits="userSpaceOnUse"><stop stop-color="#FDE030" offset=".5"/><stop stop-color="#F7C02B" offset=".92"/><stop stop-color="#F4A223" offset="1"/></radialGradient><path d="m63.6 118.8c-27.9 0-58-17.5-58-55.9s30.1-55.9 58-55.9c15.5 0 29.8 5.1 40.4 14.4 11.5 10.2 17.6 24.6 17.6 41.5s-6.1 31.2-17.6 41.4c-10.6 9.3-25 14.5-40.4 14.5z" fill="url(#a)"/><path d="m111.49 29.67c5.33 8.6 8.11 18.84 8.11 30.23 0 16.9-6.1 31.2-17.6 41.4-10.6 9.3-25 14.5-40.4 14.5-18.06 0-37-7.35-48.18-22.94 10.76 17.66 31 25.94 50.18 25.94 15.4 0 29.8-5.2 40.4-14.5 11.5-10.2 17.6-24.5 17.6-41.4 0-12.74-3.47-24.06-10.11-33.23z" fill="#EB8F00"/><path d="m34.37 96.74c6.4-11.11 19.88-15.68 29.63-15.68s23.23 4.57 29.63 15.68c0.9 1.58 3.47 0.89 3.18-0.91-2.46-15-19-23.45-32.81-24-14.6-0.53-29.93 9.84-32.81 24-0.35 1.77 2.28 2.49 3.18 0.91z" fill="#422B0D"/><path d="m44 40.94c-4.19 0-8 3.54-8 9.42s3.81 9.41 8 9.41c4.2 0 8-3.54 8-9.41s-3.76-9.42-8-9.42z" fill="#422B0D"/><path d="m43.65 44.87c-1.42-0.68-3.13-0.08-3.82 1.34-0.53 1.11-0.29 2.44 0.6 3.3 1.42 0.68 3.13 0.08 3.82-1.34 0.53-1.11 0.29-2.44-0.6-3.3z" fill="#896024"/><path d="m82.4 40.94c-4.19 0-8 3.54-8 9.42s3.81 9.41 8 9.41 8-3.54 8-9.41-3.81-9.42-8-9.42z" fill="#422B0D"/><path d="m82 44.87c-1.42-0.68-3.13-0.08-3.82 1.34-0.53 1.11-0.29 2.44 0.6 3.3 1.42 0.68 3.13 0.08 3.82-1.34 0.53-1.11 0.29-2.44-0.6-3.3z" fill="#896024"/></svg>

<?xml version="1.0" encoding="utf-8"?>
<!-- Generator: Adobe Illustrator 24.1.2, SVG Export Plug-In . SVG Version: 6.00 Build 0)  -->
<svg version="1.1" id="Layer_1" xmlns="http://www.w3.org/2000/svg" xmlns:xlink="http://www.w3.org/1999/xlink" x="0px" y="0px"
	 viewBox="0 0 128 128" style="enable-background:new 0 0 128 128;" xml:space="preserve">
<g id="gold">
	
		<radialGradient id="face_1_" cx="63.6" cy="1400.9" r="56.9597" gradientTransform="matrix(1 0 0 1 0 -1338)" gradientUnits="userSpaceOnUse">
		<stop  offset="0.5" style="stop-color:#FDE030"/>
		<stop  offset="0.92" style="stop-color:#F7C02B"/>
		<stop  offset="1" style="stop-color:#F4A223"/>
	</radialGradient>
	<path id="face" style="fill:url(#face_1_);" d="M63.6,118.8c-27.9,0-58-17.5-58-55.9S35.7,7,63.6,7c15.5,0,29.8,5.1,40.4,14.4
		c11.5,10.2,17.6,24.6,17.6,41.5s-6.1,31.2-17.6,41.4C93.4,113.6,79,118.8,63.6,118.8z"/>
	<path style="fill:#EB8F00;" d="M111.49,29.67c5.33,8.6,8.11,18.84,8.11,30.23c0,16.9-6.1,31.2-17.6,41.4
		c-10.6,9.3-25,14.5-40.4,14.5c-18.06,0-37-7.35-48.18-22.94c10.76,17.66,31,25.94,50.18,25.94c15.4,0,29.8-5.2,40.4-14.5
		c11.5-10.2,17.6-24.5,17.6-41.4C121.6,50.16,118.13,38.84,111.49,29.67z"/>
</g>
<g id="facial_expressions">
	<g id="frowning-face">
		<path id="mouth" style="fill:#422B0D;" d="M34.37,96.74C40.77,85.63,54.25,81.06,64,81.06s23.23,4.57,29.63,15.68
			c0.9,1.58,3.47,0.89,3.18-0.91c-2.46-15-19-23.45-32.81-24c-14.6-0.53-29.93,9.84-32.81,24C30.84,97.6,33.47,98.32,34.37,96.74z"
			/>
	</g>
	<path style="fill:#422B0D;" d="M44,40.94L44,40.94c-4.19,0-8,3.54-8,9.42s3.81,9.41,8,9.41l0,0c4.2,0,8-3.54,8-9.41
		S48.24,40.94,44,40.94z"/>
	<g id="peepers">
		<path style="fill:#896024;" d="M43.65,44.87L43.65,44.87c-1.42-0.68-3.13-0.08-3.82,1.34c-0.53,1.11-0.29,2.44,0.6,3.3l0,0
			c1.42,0.68,3.13,0.08,3.82-1.34C44.78,47.06,44.54,45.73,43.65,44.87z"/>
	</g>
	<path style="fill:#422B0D;" d="M82.4,40.94L82.4,40.94c-4.19,0-8,3.54-8,9.42s3.81,9.41,8,9.41l0,0c4.19,0,8-3.54,8-9.41
		S86.59,40.94,82.4,40.94z"/>
	<g id="peepers-2">
		<path style="fill:#896024;" d="M82,44.87L82,44.87c-1.42-0.68-3.13-0.08-3.82,1.34c-0.53,1.11-0.29,2.44,0.6,3.3l0,0
			c1.42,0.68,3.13,0.08,3.82-1.34C83.13,47.06,82.89,45.73,82,44.87z"/>
	</g>
</g>
</svg>
